X:831
T:Sandy O'er the Lea
R:Reel
B:The Athole Collection
M:C|
L:1/8
K:D
A,|DEFG AFFB|AFED E2EF|DEFG AFFB|AGFE D2D:|
|:g|faef defa|AFED E2Eg|faef defa|AGFE D2D:|
|:A|FADA FADB|AFED E2EG|FADA FADB|AGFE D2D:|
|:g|faef defa|AFED E2Eg|faef defa|AGFE D2D:|

